X: 10
T: Captain Brisbane's Frolic
M:2/4
L:1/8
B:Goulding & Co. - Twenty Four Country Dances for the Year 1808 (London)
N:"With proper Tune & Directions to each Dance (as they may be
N:performed at Court, Bath, and all Public Assemblys."
Z:Transcribed and edited by Flynn Titford-Mock
Z:abcs's:AK/Fiddler's Companion
K:F
A/B/|cA/B/ cf/a/|c3 A/B/|cc/B/ AA/G/|AF FA/B/|cA/B/ cf/a/|c3 A/B/|cc {d}cB/A/|A2 A:|
|:BGG e/f/|g[ce] [ce]z|c[FA][FA] f/g/|a[Af] [A2f2]|dbca|BgAf|c/B/A/B/ c/B/A/G/|FAF:||

%%sep 1 1 500
